X:10
T:Delnadamph Lodge
R:reel
C:Alexander Walker
0:19th century Scottish
S:Silver Apple News,1993
D:Jerry Holland Lively Steps, The Barra MacNeils, Traditional Album,
Natalie MacMaster, My Roots are Showing
B:Alexander Walker Collection, Cranford Publications
N:Contacts ...
N:..... Cranford Publications <http://www.cranfordpub.com>
Z:This abc transcription is for personal use only,
Z:provided this notice remains attached.
Z:Paul Stewart Cranford <psc@cranfordpub.com>
L:1/8
Q:333
M:C|
K:A
d|cA A/A/A A2 EA|ceec fBBd|cABG A2 EC|DFEG AA,A,:|!
c|A/A/A cA FAEA|FABc defa|A/A/A cA FAEd|cefg aAAc|!
A/A/A cA FAEA|FABc defg|agfe fgaf|eEFG A2A|]!

